X: 201272
T: Turkey in the Straw
S: "Johnny O'Leary of Sliabh Luachra" (#247)
Z: B.Black
L: 1/8
M: 4/4
R: hornpipe
K: D
fe|dz dc d2 FG|ABAF A2 de|fz fe fede|feed e2 fe|
d2-dc d2 FG|ABAF A2 de|faag afde|fdec d2 :|
de|faag az a2|faag az a2|gbba bz b2|gbba b4|
d'z d'2 az a2|fafd e2 de|faab afde|f2 e2 d2 :|
